X: 47
T: Mallebrok I
T: Marlborough
B:[[Notböcker/Melodier til gamle danske Almuedanse for Violin solo]]
O:Danmark
Z:Søren Bak Vestergaard
M: 2/4
L: 1/8
K: G
(D/G/)|BB BA/B/|c2 BB/B/|AA AG/A/|BGG (D/G/)|\
BB BA/B/|c2 ee/e/|dd (.c>.F)|G2 z:| |:(B/c/)|dd ee|d3 (B/c/)|\
dd ee|d3 (D/G/)|BB BA/B/|c2 ee/e/|dd (.c>.F)|G2 z:|

